exported-svg/slash.svg

<svg height="24" viewBox="0 0 24 24" width="24" xmlns="http://www.w3.org/2000/svg"><path d="m4.93818502 5.6452918c-1.51569977 1.68326427-2.43818502 3.91125725-2.43818502 6.3547082 0 5.2467051 4.25329488 9.5 9.5 9.5 2.443451 0 4.6714439-.9224853 6.3547082-2.438185zm.70710678-.70710678 13.4165232 13.41652318c1.5156997-1.6832643 2.438185-3.9112572 2.438185-6.3547082 0-5.24670512-4.2532949-9.5-9.5-9.5-2.44345095 0-4.67144393.92248525-6.3547082 2.43818502zm6.3547082 17.56181498c-5.79898987 0-10.5-4.7010101-10.5-10.5 0-5.79898987 4.70101013-10.5 10.5-10.5 5.7989899 0 10.5 4.70101013 10.5 10.5 0 5.7989899-4.7010101 10.5-10.5 10.5z"/></svg>

<?xml version="1.0" encoding="UTF-8"?>
<svg width="24px" height="24px" viewBox="0 0 24 24" version="1.1" xmlns="http://www.w3.org/2000/svg" xmlns:xlink="http://www.w3.org/1999/xlink">
    <!-- Generator: Sketch 55.2 (78181) - https://sketchapp.com -->
    <title>slash</title>
    <desc>Created with Sketch.</desc>
    <g id="slash" stroke="none" stroke-width="1" fill="none" fill-rule="evenodd">
        <path d="M4.93818502,5.6452918 C3.42248525,7.32855607 2.5,9.55654905 2.5,12 C2.5,17.2467051 6.75329488,21.5 12,21.5 C14.443451,21.5 16.6714439,20.5775147 18.3547082,19.061815 L4.93818502,5.6452918 Z M5.6452918,4.93818502 L19.061815,18.3547082 C20.5775147,16.6714439 21.5,14.443451 21.5,12 C21.5,6.75329488 17.2467051,2.5 12,2.5 C9.55654905,2.5 7.32855607,3.42248525 5.6452918,4.93818502 Z M12,22.5 C6.20101013,22.5 1.5,17.7989899 1.5,12 C1.5,6.20101013 6.20101013,1.5 12,1.5 C17.7989899,1.5 22.5,6.20101013 22.5,12 C22.5,17.7989899 17.7989899,22.5 12,22.5 Z" id="Combined-Shape" fill="#000000" fill-rule="nonzero"></path>
    </g>
</svg>
